svgs/solid/book-medical.svg

<svg xmlns="http://www.w3.org/2000/svg" viewBox="0 0 448 512"><!--! Font Awesome Pro 6.0.0-alpha3 by @fontawesome - https://fontawesome.com License - https://fontawesome.com/license (Commercial License) --><path d="M448 360V24C448 10.74 437.3 0 424 0H96C42.98 0 0 42.98 0 96v320c0 53.02 42.98 96 96 96h328c13.25 0 24-10.75 24-24v-16c0-10.42-6.725-19.06-16-22.38v-67.23C441.3 379.1 448 370.4 448 360zM128 166c0-8.838 7.164-16 16-16h53.1V96c0-8.838 7.164-16 16-16h52c8.836 0 16 7.162 16 16v54H336c8.836 0 16 7.162 16 16v52c0 8.836-7.164 16-16 16h-54V288c0 8.836-7.164 16-16 16h-52c-8.836 0-16-7.164-16-16V234H144c-8.836 0-16-7.164-16-16V166zM384 448H96c-17.67 0-32-14.33-32-32c0-17.67 14.33-32 32-32h288V448z"/></svg>

<svg xmlns="http://www.w3.org/2000/svg" viewBox="0 0 448 512"><!-- Font Awesome Pro 6.0.0-alpha2 by @fontawesome - https://fontawesome.com License - https://fontawesome.com/license (Commercial License) --><path d="M448 360V24C448 10.744 437.254 0 424 0H96C42.98 0 0 42.98 0 96V416C0 469.02 42.98 512 96 512H424C437.254 512 448 501.254 448 488V472C448 461.582 441.275 452.936 432 449.615V382.385C441.275 379.064 448 370.416 448 360ZM128 166C128 157.162 135.164 150 144 150H198V96C198 87.162 205.164 80 214 80H266C274.836 80 282 87.162 282 96V150H336C344.836 150 352 157.162 352 166V218C352 226.836 344.836 234 336 234H282V288C282 296.836 274.836 304 266 304H214C205.164 304 198 296.836 198 288V234H144C135.164 234 128 226.836 128 218V166ZM384 448H96C78.326 448 64 433.672 64 416C64 398.326 78.326 384 96 384H384V448Z"/></svg>
